svgs/sharp-regular/people.svg

<svg xmlns="http://www.w3.org/2000/svg" viewBox="0 0 640 512"><!--! Font Awesome Pro 6.6.0 by @fontawesome - https://fontawesome.com License - https://fontawesome.com/license (Commercial License) Copyright 2024 Fonticons, Inc. --><path d="M160 96a48 48 0 1 0 0-96 48 48 0 1 0 0 96zm-51.1 32l-14.1 0-6.9 12.4-75.3 136L1 297.4l42 23.3 11.6-21L96 224.9 96 488l0 24 48 0 0-24 0-136 32 0 0 136 0 24 48 0 0-24 0-263.1 41.4 74.8 11.6 21 42-23.3-11.6-21-75.3-136L225.2 128l-14.1 0-102.2 0zM176 304l-32 0 0-128 32 0 0 128zM480 96a48 48 0 1 0 0-96 48 48 0 1 0 0 96zm-51.1 32l-14.1 0-6.9 12.4-75.3 136-11.6 21 42 23.3 11.6-21L420 217.7 383 336l-15 48 48 0 0 104 0 24 48 0 0-24 0-104 32 0 0 104 0 24 48 0 0-24 0-104 48 0-15-48L540 217.7l45.4 81.9 11.6 21 42-23.3-11.6-21-75.3-136L545.2 128l-14.1 0L512 128l-64 0-19.1 0zM480 186.5L526.7 336l-93.4 0L480 186.5z"/></svg>

<svg xmlns="http://www.w3.org/2000/svg" viewBox="0 0 640 512"><!--! Font Awesome Pro 6.4.0 by @fontawesome - https://fontawesome.com License - https://fontawesome.com/license (Commercial License) Copyright 2023 Fonticons, Inc. --><path d="M160 96a48 48 0 1 0 0-96 48 48 0 1 0 0 96zm-51.1 32H94.8l-6.9 12.4-75.3 136L1 297.4l42 23.3 11.6-21L96 224.9V488v24h48V488 352h32V488v24h48V488 224.9l41.4 74.8 11.6 21 42-23.3-11.6-21-75.3-136L225.2 128H211.1 108.9zM176 304H144V176h32V304zM480 96a48 48 0 1 0 0-96 48 48 0 1 0 0 96zm-51.1 32H414.8l-6.9 12.4-75.3 136-11.6 21 42 23.3 11.6-21L420 217.7 383 336l-15 48h48V488v24h48V488 384h32V488v24h48V488 384h48l-15-48L540 217.7l45.4 81.9 11.6 21 42-23.3-11.6-21-75.3-136L545.2 128H531.1 512 448 428.9zM480 186.5L526.7 336H433.3L480 186.5z"/></svg>
